;FLAVOR:Marlin
;TIME:9882
;Filament used: 9.28066m
;Layer height: 0.28
;MINX:78.083
;MINY:47.255
;MINZ:0.28
;MAXX:190.819
;MAXY:139.486
;MAXZ:21.84
;Generated with Cura_SteamEngine 4.8.0
M140 S50
M105
M190 S50
M104 S200
M105
M109 S200
M82 ;absolute extrusion mode
; Ender 3 Custom Start G-code
G92 E0 ; Reset Extruder
G28 ; Home all axes
G29 ; 3D Touch Homing
G1 Z2.0 F3000 ; Move Z Axis up little to prevent scratching of Heat Bed
G1 X0.1 Y20 Z0.3 F5000.0 ; Move to start position
G1 X0.1 Y200.0 Z0.3 F1500.0 E15 ; Draw the first line
G1 X0.4 Y200.0 Z0.3 F5000.0 ; Move to side a little
G1 X0.4 Y20 Z0.3 F1500.0 E30 ; Draw the second line
G92 E0 ; Reset Extruder
G1 Z7.0 F3000 ; Move Z Axis up little to prevent scratching of Heat Bed
G1 X5 Y20 Z0.3 F5000.0 ; Move over to prevent blob squish
G92 E0
G92 E0
G1 F2700 E-5
;LAYER_COUNT:78
;LAYER:0
M107
G0 F6000 X86.516 Y90.382 Z0.28
;TYPE:SKIRT
G1 F2700 E0
G1 F1200 X87.22 Y90.122 E0.03495
G1 X88.171 Y89.883 E0.0806
G1 X89.176 Y89.736 E0.1279
G1 X90.153 Y89.696 E0.17343
G1 X91.026 Y89.75 E0.21416
G1 X90.7 Y89.985 E0.23287
G1 X90.232 Y90.206 E0.25697
G1 X89.768 Y90.338 E0.27943
G1 X89.258 Y90.382 E0.30327
G1 X86.516 Y90.382 E0.43095
G0 F6000 X86.12 Y90.102
G1 F1200 X87.105 Y89.739 E0.47983
G1 X88.096 Y89.49 E0.52741
G1 X89.14 Y89.337 E0.57654
G1 X90.152 Y89.295 E0.62371
G1 X91.202 Y89.361 E0.6727
G1 X91.878 Y89.474 E0.70461
G1 X91.82 Y89.548 E0.70899
G1 X91.418 Y89.961 E0.73582
G1 X90.906 Y90.329 E0.76518
G1 X90.369 Y90.583 E0.79285
G1 X89.839 Y90.734 E0.81851
G1 X89.282 Y90.782 E0.84454
G1 X84.831 Y90.782 E1.0518
G1 X85.178 Y90.564 E1.07088
G1 X86.12 Y90.102 E1.11973
G1 F2700 E-3.88027
G0 F6000 X86.595 Y115.149
G0 X87.099 Y115.653
G0 X89.711 Y115.605
G0 X91.179 Y115.448
G0 X92.631 Y115.188
G0 X94.062 Y114.824
G0 X95.464 Y114.359
G0 X97.752 Y113.348
G0 X99.267 Y112.478
G0 X100.584 Y111.576
G0 X101.845 Y110.561
G0 X103.003 Y109.469
G0 X104.078 Y108.285
G0 X105.069 Y107.006
G0 X105.945 Y105.675
G0 X106.72 Y104.27
G0 X107.318 Y102.957
G0 X113.901 Y84.196
G0 X113.553 Y83.406
;TYPE:SUPPORT-INTERFACE
G1 F2700 E1.11973
G1 F1200 X113.552 Y55.192 E2.43349
G1 X113.583 Y55.192 E2.43494
G1 X113.584 Y83.392 E3.74805
G1 X113.553 Y83.406 E3.74963
G1 F2700 E-1.25037
;MESH:Body15.stl
G0 F6000 X113.901 Y84.196
G0 X107.385 Y102.811
G0 X106.72 Y104.27
G0 X105.945 Y105.675
G0 X105.069 Y107.006
G0 X104.078 Y108.285
G0 X103.003 Y109.469
G0 X101.845 Y110.561
G0 X100.584 Y111.576
G0 X99.267 Y112.478
G0 X97.752 Y113.348
G0 X95.464 Y114.359
G0 X94.062 Y114.824
G0 X92.631 Y115.188
G0 X91.179 Y115.448
G0 X89.711 Y115.605
G0 X87.099 Y115.653
G0 X86.595 Y115.149
G0 X86.595 Y109.767
G0 X90.504 Y106.846
G0 X91.475 Y109.529
G0 X91.634 Y110.602
G0 X88.041 Y110.898
G0 X87.856 Y114.392
;TYPE:WALL-INNER
G1 F2700 E3.74963
G1 F1200 X87.856 Y114.382 E3.7501
G1 X87.856 Y110.764 E3.91857
G1 X87.856 Y110.748 E3.91931
G1 X87.856 Y110.67 E3.92294
G1 X88.226 Y110.748 E3.93554
G1 X88.241 Y110.749 E3.93622
G1 X89.367 Y110.873 E3.98897
G1 X90.515 Y110.884 E4.04243
G1 X91.659 Y110.782 E4.09591
G1 X92.786 Y110.568 E4.14933
G1 X93.887 Y110.242 E4.20279
G1 X94.951 Y109.81 E4.25627
G1 X95.644 Y109.445 E4.29274
G1 X95.936 Y109.292 E4.30809
G1 X95.936 Y109.621 E4.31685
G1 X95.936 Y109.622 E4.3169
G1 X95.937 Y112.795 E4.46465
G1 X95.027 Y113.172 E4.51051
G1 X93.711 Y113.608 E4.57507
G1 X92.366 Y113.951 E4.6397
G1 X91.001 Y114.196 E4.70428
G1 X89.626 Y114.342 E4.76866
G1 X88.245 Y114.392 E4.83301
G1 X88.235 Y114.392 E4.83347
G1 X87.856 Y114.392 E4.85112
G0 F6000 X87.456 Y114.792
;TYPE:WALL-OUTER
G1 F1200 X87.456 Y110.177 E5.06601
G1 X88.289 Y110.353 E5.10565
G1 X89.391 Y110.473 E5.15727
G1 X90.499 Y110.484 E5.20887
G1 X91.604 Y110.385 E5.26053
G1 X92.692 Y110.179 E5.31209
G1 X93.755 Y109.864 E5.36371
G1 X94.782 Y109.447 E5.41533
G1 X95.752 Y108.937 E5.46636
G1 X96.336 Y108.553 E5.4989
G1 X96.337 Y113.063 E5.70891
G1 X95.167 Y113.547 E5.76786
G1 X93.822 Y113.993 E5.83385
G1 X92.452 Y114.342 E5.89968
G1 X91.06 Y114.592 E5.96553
G1 X89.654 Y114.742 E6.03137
G1 X88.249 Y114.792 E6.09684
G1 X87.456 Y114.792 E6.13376
G0 F6000 X87.726 Y114.522
G0 X87.966 Y114.001
G0 X88.246 Y114.001
;TYPE:SKIN
G1 F1200 X88.246 Y111.143 E6.26684
G1 X89.344 Y111.263 E6.31827
G1 X90.531 Y111.274 E6.37355
G1 X91.713 Y111.168 E6.42881
G1 X92.878 Y110.948 E6.48401
G1 X94.016 Y110.611 E6.53928
G1 X95.115 Y110.165 E6.59451
G1 X95.546 Y109.938 E6.61719
G1 X95.547 Y112.533 E6.73802
G1 X94.881 Y112.809 E6.77159
G1 X93.603 Y113.233 E6.83429
G1 X92.285 Y113.569 E6.89762
G1 X90.946 Y113.81 E6.96098
G1 X89.6 Y113.952 E7.024
G1 X88.246 Y114.001 E7.08709
G0 F6000 X88.925 Y113.815
G1 F1200 X88.406 Y113.296 E7.12126
G0 F6000 X88.406 Y112.73
G1 F1200 X89.471 Y113.796 E7.19143
G0 F6000 X89.99 Y113.749
G1 F1200 X88.406 Y112.164 E7.29577
G0 F6000 X88.406 Y111.599
G1 F1200 X90.502 Y113.695 E7.4338
G0 F6000 X91.008 Y113.636
G1 F1200 X88.728 Y111.355 E7.58397
G0 F6000 X89.361 Y111.423
G1 F1200 X91.487 Y113.549 E7.72397
G0 F6000 X91.965 Y113.461
G1 F1200 X89.931 Y111.428 E7.85788
G0 F6000 X90.502 Y111.432
G1 F1200 X92.432 Y113.363 E7.98501
G0 F6000 X92.884 Y113.248
G1 F1200 X91.025 Y111.389 E8.10743
G0 F6000 X91.544 Y111.343
G1 F1200 X93.335 Y113.134 E8.22537
G0 F6000 X93.772 Y113.006
G1 F1200 X92.036 Y111.269 E8.33972
G0 F6000 X92.512 Y111.179
G1 F1200 X94.197 Y112.865 E8.45071
G0 F6000 X94.622 Y112.724
G1 F1200 X92.981 Y111.083 E8.55877
G0 F6000 X93.417 Y110.954
G1 F1200 X95.034 Y112.57 E8.66522
G0 F6000 X95.386 Y112.357
G1 F1200 X93.854 Y110.825 E8.76611
G0 F6000 X94.273 Y110.678
G1 F1200 X95.386 Y111.791 E8.8394
G0 F6000 X95.386 Y111.225
G1 F1200 X94.676 Y110.515 E8.88616
G0 F6000 X95.078 Y110.352
G1 F1200 X95.386 Y110.66 E8.90644
G0 F6000 X95.827 Y110.66
G0 X96.065 Y109.089
G0 X96.042 Y109.053
;TYPE:SKIN
G1 F1200 X95.982 Y108.993 E8.90841
G0 F6000 X95.736 Y109.35
G1 F2700 E3.90841
G0 F6000 X96.136 Y111.663
G0 X97.953 Y111.663
G0 X98.153 Y111.663
;TYPE:WALL-INNER
G1 F2700 E8.90841
G1 F1200 X98.153 Y111.319 E8.92443
G1 X98.153 Y111.318 E8.92448
G1 X98.152 Y107.587 E9.09821
G1 X98.867 Y106.836 E9.14649
G1 X99.637 Y105.834 E9.20534
G1 X100.292 Y104.751 E9.26427
G1 X100.825 Y103.605 E9.32312
G1 X101.23 Y102.408 E9.38196
G1 X101.503 Y101.172 E9.4409
G1 X101.639 Y99.916 E9.49973
G1 X101.64 Y98.664 E9.55803
G1 X101.5 Y97.393 E9.61757
G1 X101.225 Y96.159 E9.67644
G1 X100.824 Y94.974 E9.73469
G1 X100.283 Y93.816 E9.79421
G1 X99.626 Y92.736 E9.85307
G1 X98.856 Y91.734 E9.91191
G1 X98.153 Y90.999 E9.95927
G1 X98.153 Y55.592 E11.60797
G1 X111.952 Y55.592 E12.25051
G1 X111.953 Y83.778 E13.56297
G1 X111.482 Y84.08 E13.58902
G1 X111.372 Y84.156 E13.59525
G1 X110.553 Y84.832 E13.6447
G1 X109.815 Y85.605 E13.69446
G1 X109.174 Y86.458 E13.74414
G1 X108.641 Y87.371 E13.79337
G1 X108.211 Y88.362 E13.84367
G1 X107.903 Y89.385 E13.89342
G1 X107.717 Y90.437 E13.94317
G1 X107.656 Y91.474 E13.99154
G1 X107.656 Y94.969 E14.15428
G1 X107.597 Y96.496 E14.22544
G1 X107.424 Y97.981 E14.29505
G1 X107.132 Y99.47 E14.36571
G1 X106.729 Y100.914 E14.43551
G1 X106.214 Y102.33 E14.50567
G1 X105.589 Y103.704 E14.57596
G1 X104.866 Y105.015 E14.64568
G1 X104.042 Y106.268 E14.71551
G1 X103.112 Y107.468 E14.7862
G1 X102.101 Y108.582 E14.85625
G1 X101.016 Y109.605 E14.92569
G1 X99.836 Y110.556 E14.99626
G1 X98.593 Y111.409 E15.06645
G1 X98.451 Y111.491 E15.07409
G1 X98.153 Y111.663 E15.08318
G0 F6000 X97.753 Y112.355
;TYPE:WALL-OUTER
G1 F1200 X97.752 Y107.427 E15.31265
G1 X98.563 Y106.576 E15.36739
G1 X99.306 Y105.608 E15.42421
G1 X99.938 Y104.563 E15.48108
G1 X100.453 Y103.456 E15.53793
G1 X100.844 Y102.3 E15.59475
G1 X101.108 Y101.107 E15.65165
G1 X101.239 Y99.894 E15.70846
G1 X101.24 Y98.686 E15.76471
G1 X101.105 Y97.459 E15.82219
G1 X100.839 Y96.267 E15.87906
G1 X100.452 Y95.123 E15.93529
G1 X99.93 Y94.005 E15.99274
G1 X99.296 Y92.963 E16.04954
G1 X98.552 Y91.995 E16.10639
G1 X97.753 Y91.16 E16.1602
G1 X97.753 Y55.192 E17.83502
G1 X112.352 Y55.192 E18.51481
G1 X112.353 Y83.996 E19.85605
G1 X111.703 Y84.414 E19.89203
G1 X111.612 Y84.476 E19.89716
G1 X110.826 Y85.125 E19.94462
G1 X110.121 Y85.864 E19.99218
G1 X109.508 Y86.68 E20.03971
G1 X108.998 Y87.552 E20.08675
G1 X108.587 Y88.5 E20.13486
G1 X108.293 Y89.478 E20.18241
G1 X108.115 Y90.484 E20.22998
G1 X108.056 Y91.486 E20.27672
G1 X108.056 Y94.984 E20.4396
G1 X107.997 Y96.519 E20.51113
G1 X107.817 Y98.058 E20.58328
G1 X107.524 Y99.551 E20.65413
G1 X107.108 Y101.044 E20.7263
G1 X106.585 Y102.48 E20.79746
G1 X105.949 Y103.879 E20.86902
G1 X105.207 Y105.225 E20.94059
G1 X104.368 Y106.5 E21.01166
G1 X103.418 Y107.726 E21.08388
G1 X102.389 Y108.86 E21.15518
G1 X101.279 Y109.906 E21.2262
G1 X100.072 Y110.879 E21.29839
G1 X98.81 Y111.745 E21.36966
G1 X97.753 Y112.355 E21.42648
G0 F6000 X98.002 Y111.923
G0 X98.7 Y111.201
G0 X98.543 Y110.97
;TYPE:SKIN
G1 F1200 X98.542 Y107.743 E21.57675
G1 X99.164 Y107.09 E21.61874
G1 X99.959 Y106.054 E21.67955
G1 X100.637 Y104.935 E21.74047
G1 X101.188 Y103.75 E21.80132
G1 X101.606 Y102.513 E21.86212
G1 X101.889 Y101.235 E21.92307
G1 X102.029 Y99.937 E21.98386
G1 X102.03 Y98.643 E22.04412
G1 X101.886 Y97.329 E22.10567
G1 X101.601 Y96.054 E22.1665
G1 X101.187 Y94.828 E22.22676
G1 X100.628 Y93.631 E22.28827
G1 X99.948 Y92.515 E22.34913
G1 X99.152 Y91.48 E22.40993
G1 X98.543 Y90.843 E22.45096
G1 X98.543 Y55.982 E24.07424
G1 X111.562 Y55.982 E24.68045
G1 X111.563 Y83.565 E25.96484
G1 X111.266 Y83.755 E25.98125
G1 X111.136 Y83.844 E25.98859
G1 X110.287 Y84.546 E26.03989
G1 X109.517 Y85.352 E26.09179
G1 X108.848 Y86.242 E26.14363
G1 X108.292 Y87.194 E26.19497
G1 X107.844 Y88.228 E26.24744
G1 X107.523 Y89.295 E26.29933
G1 X107.329 Y90.392 E26.3512
G1 X107.266 Y91.462 E26.40111
G1 X107.266 Y94.954 E26.56371
G1 X107.209 Y96.451 E26.63347
G1 X107.036 Y97.936 E26.70308
G1 X106.756 Y99.365 E26.77089
G1 X106.357 Y100.794 E26.83998
G1 X105.851 Y102.184 E26.90885
G1 X105.238 Y103.533 E26.97785
G1 X104.535 Y104.809 E27.04569
G1 X103.727 Y106.038 E27.11417
G1 X102.813 Y107.217 E27.18364
G1 X101.823 Y108.308 E27.25224
G1 X100.771 Y109.301 E27.3196
G1 X99.603 Y110.242 E27.38944
G1 X98.543 Y110.97 E27.44932
G0 F6000 X99.087 Y110.401
G1 F1200 X98.702 Y110.015 E27.4747
G0 F6000 X98.702 Y109.45
G1 F1200 X99.422 Y110.17 E27.52212
G0 F6000 X99.741 Y109.923
G1 F1200 X98.701 Y108.883 E27.5906
G0 F6000 X98.701 Y108.318
G1 F1200 X100.054 Y109.671 E27.6797
G0 F6000 X100.368 Y109.419
G1 F1200 X98.727 Y107.778 E27.78776
G0 F6000 X99.003 Y107.488
G1 F1200 X100.68 Y109.165 E27.8982
G0 F6000 X100.971 Y108.89
G1 F1200 X99.279 Y107.198 E28.00962
G0 F6000 X99.525 Y106.879
G1 F1200 X101.262 Y108.616 E28.124
G0 F6000 X101.553 Y108.341
G1 F1200 X99.771 Y106.559 E28.24135
G0 F6000 X100.017 Y106.239
G1 F1200 X101.834 Y108.057 E28.36104
G0 F6000 X102.104 Y107.76
G1 F1200 X100.24 Y105.897 E28.48375
G0 F6000 X100.453 Y105.544
G1 F1200 X102.373 Y107.464 E28.61019
G0 F6000 X102.642 Y107.168
G1 F1200 X100.667 Y105.192 E28.74028
G0 F6000 X100.864 Y104.824
G1 F1200 X102.893 Y106.853 E28.87389
G0 F6000 X103.14 Y106.534
G1 F1200 X101.044 Y104.438 E29.01191
G0 F6000 X101.223 Y104.051
G1 F1200 X103.387 Y106.215 E29.15442
G0 F6000 X103.631 Y105.894
G1 F1200 X101.388 Y103.651 E29.30212
G0 F6000 X101.532 Y103.229
G1 F1200 X103.855 Y105.552 E29.4551
G0 F6000 X104.079 Y105.211
G1 F1200 X101.674 Y102.806 E29.61347
G0 F6000 X101.801 Y102.367
G1 F1200 X104.303 Y104.869 E29.77823
G0 F6000 X104.514 Y104.514
G1 F1200 X101.903 Y101.903 E29.95017
G0 F6000 X102.006 Y101.44
G1 F1200 X104.715 Y104.149 E30.12856
G0 F6000 X104.916 Y103.784
G1 F1200 X102.08 Y100.948 E30.31532
G0 F6000 X102.135 Y100.438
G1 F1200 X105.114 Y103.417 E30.51149
G0 F6000 X105.291 Y103.028
G1 F1200 X102.188 Y99.925 E30.71583
G0 F6000 X102.188 Y99.359
G1 F1200 X105.467 Y102.639 E30.93179
G0 F6000 X105.644 Y102.25
G1 F1200 X102.188 Y98.794 E31.15937
G0 F6000 X102.139 Y98.179
G1 F1200 X105.803 Y101.843 E31.40065
G0 F6000 X105.955 Y101.429
G1 F1200 X102.069 Y97.543 E31.65655
G0 F6000 X101.942 Y96.851
G1 F1200 X106.105 Y101.014 E31.93069
G0 F6000 X106.246 Y100.589
G1 F1200 X101.78 Y96.123 E32.22479
G0 F6000 X101.51 Y95.287
G1 F1200 X106.37 Y100.147 E32.54483
G0 F6000 X106.493 Y99.705
G1 F1200 X101.141 Y94.352 E32.8973
G0 F6000 X100.742 Y94.538
G0 X100.173 Y93.424
G0 X100.55 Y93.196
G1 F1200 X106.613 Y99.259 E33.29656
G0 F6000 X106.706 Y98.787
G1 F1200 X98.792 Y90.873 E33.81771
G0 F6000 X98.702 Y90.216
G1 F1200 X106.799 Y98.314 E34.35094
G0 F6000 X106.886 Y97.835
G1 F1200 X98.702 Y89.651 E34.88987
G0 F6000 X98.702 Y89.085
G1 F1200 X106.944 Y97.328 E35.43265
G0 F6000 X107.003 Y96.821
G1 F1200 X98.702 Y88.519 E35.97932
G0 F6000 X98.702 Y87.954
G1 F1200 X107.053 Y96.305 E36.52925
G0 F6000 X107.075 Y95.761
G1 F1200 X98.702 Y87.388 E37.08063
G0 F6000 X98.702 Y86.822
G1 F1200 X107.095 Y95.216 E37.63335
G0 F6000 X107.105 Y94.66
G1 F1200 X98.702 Y86.257 E38.1867
G0 F6000 X98.702 Y85.691
G1 F1200 X107.105 Y94.094 E38.74006
G0 F6000 X107.105 Y93.529
G1 F1200 X98.702 Y85.125 E39.29344
G0 F6000 X98.702 Y84.56
G1 F1200 X107.105 Y92.963 E39.84679
G0 F6000 X107.105 Y92.397
G1 F1200 X98.702 Y83.994 E40.40014
G0 F6000 X98.702 Y83.428
G1 F1200 X107.105 Y91.831 E40.9535
G0 F6000 X107.116 Y91.276
G1 F1200 X98.702 Y82.863 E41.50754
G0 F6000 X98.702 Y82.297
G1 F1200 X107.147 Y90.742 E42.06366
G0 F6000 X107.195 Y90.224
G1 F1200 X98.702 Y81.731 E42.62294
G0 F6000 X98.702 Y81.165
G1 F1200 X107.28 Y89.744 E43.18784
G0 F6000 X107.365 Y89.263
G1 F1200 X98.702 Y80.6 E43.75832
G0 F6000 X98.702 Y80.034
G1 F1200 X107.496 Y88.828 E44.33742
G0 F6000 X107.627 Y88.394
G1 F1200 X98.702 Y79.468 E44.92518
G0 F6000 X98.702 Y78.903
G1 F1200 X107.777 Y87.978 E45.52278
G0 F6000 X107.948 Y87.583
G1 F1200 X98.702 Y78.337 E46.13165
G0 F6000 X98.702 Y77.771
G1 F1200 X108.119 Y87.189 E46.7518
G0 F6000 X108.321 Y86.825
G1 F1200 X98.702 Y77.206 E47.38523
G0 F6000 X98.702 Y76.64
G1 F1200 X108.53 Y86.468 E48.03242
G0 F6000 X108.742 Y86.114
G1 F1200 X98.702 Y76.074 E48.69357
G0 F6000 X98.702 Y75.509
G1 F1200 X108.984 Y85.791 E49.37066
G0 F6000 X109.228 Y85.469
G1 F1200 X98.702 Y74.943 E50.06382
G0 F6000 X98.702 Y74.377
G1 F1200 X109.482 Y85.157 E50.7737
G0 F6000 X109.757 Y84.867
G1 F1200 X98.702 Y73.812 E51.50169
G0 F6000 X98.702 Y73.246
G1 F1200 X110.034 Y84.578 E52.24792
G0 F6000 X110.326 Y84.304
G1 F1200 X98.702 Y72.68 E53.01338
G0 F6000 X98.702 Y72.114
G1 F1200 X110.636 Y84.048 E53.79925
G0 F6000 X110.945 Y83.792
G1 F1200 X98.702 Y71.549 E54.60548
G0 F6000 X98.702 Y70.983
G1 F1200 X111.276 Y83.558 E55.43353
G0 F6000 X111.401 Y83.117
G1 F1200 X98.702 Y70.417 E56.26981
G0 F6000 X98.702 Y69.852
G1 F1200 X111.401 Y82.551 E57.10606
G0 F6000 X111.401 Y81.986
G1 F1200 X98.702 Y69.286 E57.94235
G0 F6000 X98.702 Y68.72
G1 F1200 X111.401 Y81.42 E58.77863
G0 F6000 X111.401 Y80.854
G1 F1200 X98.702 Y68.155 E59.61488
G0 F6000 X98.702 Y67.589
G1 F1200 X111.401 Y80.289 E60.45117
G0 F6000 X111.401 Y79.723
G1 F1200 X98.702 Y67.023 E61.28745
G0 F6000 X98.702 Y66.458
G1 F1200 X111.401 Y79.157 E62.1237
G0 F6000 X111.401 Y78.592
G1 F1200 X98.702 Y65.892 E62.95998
G0 F6000 X98.702 Y65.326
G1 F1200 X111.401 Y78.026 E63.79627
G0 F6000 X111.401 Y77.46
G1 F1200 X98.702 Y64.761 E64.63252
G0 F6000 X98.702 Y64.195
G1 F1200 X111.401 Y76.895 E65.4688
G0 F6000 X111.401 Y76.329
G1 F1200 X98.702 Y63.629 E66.30509
G0 F6000 X98.702 Y63.064
G1 F1200 X111.401 Y75.763 E67.14134
G0 F6000 X111.401 Y75.197
G1 F1200 X98.702 Y62.498 E67.97759
G0 F6000 X98.702 Y61.932
G1 F1200 X111.401 Y74.632 E68.81387
G0 F6000 X111.401 Y74.066
G1 F1200 X98.702 Y61.366 E69.65016
G0 F6000 X98.702 Y60.801
G1 F1200 X111.401 Y73.5 E70.48641
G0 F6000 X111.401 Y72.935
G1 F1200 X98.702 Y60.235 E71.32269
G0 F6000 X98.702 Y59.669
G1 F1200 X111.401 Y72.369 E72.15897
G0 F6000 X111.401 Y71.803
G1 F1200 X98.702 Y59.104 E72.99522
G0 F6000 X98.702 Y58.538
G1 F1200 X111.401 Y71.238 E73.83151
G0 F6000 X111.401 Y70.672
G1 F1200 X98.702 Y57.972 E74.66779
G0 F6000 X98.702 Y57.407
G1 F1200 X111.401 Y70.106 E75.50404
G0 F6000 X111.401 Y69.541
G1 F1200 X98.702 Y56.841 E76.34033
G0 F6000 X98.702 Y56.275
G1 F1200 X111.401 Y68.975 E77.17661
